X:125
T:Portsmouth Rout
M:6/8
L:1/8
B:Thompson's Compleat Collection of 200 Favourite Country Dances, vol. 2 (London, 1765)
Z:Transcribed and edited by Flynn Titford-Mock, 2007
Z:abc's:AK/Fiddler's Companion
K:Bb
fdB "tr"B3 | fdB "tr"B3 | bag fed | cde dcB | fdB "tr"B3 | fdB "tr"B3 | bag fed | edc B3 :|
|: d=ef fef | c=ef fef | dBG cAF | =EGB A3 | d=ef fef | c=ef fef | dBG cAF | BG=E F3 |
fdB "tr"B3 | fdB "tr"B3 | bag fed | cde dcB | fdB "tr"B3 | fdB "tr"B3 | bag fed | edc B3 :|

